src/assets/icons/icon-close.svg

<svg width="23" height="25" viewBox="0 0 23 25" fill="none" xmlns="http://www.w3.org/2000/svg">
<g filter="url(#filter0_d_125_20474)">
<g filter="url(#filter1_d_125_20474)">
<path fill-rule="evenodd" clip-rule="evenodd" d="M16.5928 6.35355C16.7875 6.15829 16.7875 5.84171 16.5928 5.64645C16.3981 5.45118 16.0824 5.45118 15.8877 5.64645L11.2544 10.2929L6.62116 5.64645C6.42645 5.45118 6.11076 5.45118 5.91605 5.64645C5.72134 5.84171 5.72134 6.15829 5.91605 6.35355L10.5493 11L5.91605 15.6464C5.72134 15.8417 5.72134 16.1583 5.91605 16.3536C6.11076 16.5488 6.42645 16.5488 6.62116 16.3536L11.2544 11.7071L15.8877 16.3536C16.0824 16.5488 16.3981 16.5488 16.5928 16.3536C16.7875 16.1583 16.7875 15.8417 16.5928 15.6464L11.9595 11L16.5928 6.35355Z" fill="white"/>
</g>
</g>
<defs>
<filter id="filter0_d_125_20474" x="-3.71436" y="0" width="29.9375" height="30" filterUnits="userSpaceOnUse" color-interpolation-filters="sRGB">
<feFlood flood-opacity="0" result="BackgroundImageFix"/>
<feColorMatrix in="SourceAlpha" type="matrix" values="0 0 0 0 0 0 0 0 0 0 0 0 0 0 0 0 0 0 127 0" result="hardAlpha"/>
<feOffset dy="4"/>
<feGaussianBlur stdDeviation="2"/>
<feComposite in2="hardAlpha" operator="out"/>
<feColorMatrix type="matrix" values="0 0 0 0 0 0 0 0 0 0 0 0 0 0 0 0 0 0 0.25 0"/>
<feBlend mode="normal" in2="BackgroundImageFix" result="effect1_dropShadow_125_20474"/>
<feBlend mode="normal" in="SourceGraphic" in2="effect1_dropShadow_125_20474" result="shape"/>
</filter>
<filter id="filter1_d_125_20474" x="3.77002" y="3.5" width="14.9688" height="15" filterUnits="userSpaceOnUse" color-interpolation-filters="sRGB">
<feFlood flood-opacity="0" result="BackgroundImageFix"/>
<feColorMatrix in="SourceAlpha" type="matrix" values="0 0 0 0 0 0 0 0 0 0 0 0 0 0 0 0 0 0 127 0" result="hardAlpha"/>
<feOffset/>
<feGaussianBlur stdDeviation="1"/>
<feComposite in2="hardAlpha" operator="out"/>
<feColorMatrix type="matrix" values="0 0 0 0 0 0 0 0 0 0 0 0 0 0 0 0 0 0 0.5 0"/>
<feBlend mode="normal" in2="BackgroundImageFix" result="effect1_dropShadow_125_20474"/>
<feBlend mode="normal" in="SourceGraphic" in2="effect1_dropShadow_125_20474" result="shape"/>
</filter>
</defs>
</svg>

<svg width="23" height="25" fill="none" xmlns="http://www.w3.org/2000/svg"><g filter="url(#a)"><g filter="url(#b)"><path fill-rule="evenodd" clip-rule="evenodd" d="M16.593 6.354a.501.501 0 0 0 0-.708.498.498 0 0 0-.705 0l-4.634 4.647-4.633-4.647a.498.498 0 0 0-.705 0 .501.501 0 0 0 0 .708L10.55 11l-4.633 4.646a.501.501 0 0 0 0 .708c.195.195.51.195.705 0l4.633-4.647 4.634 4.647c.194.195.51.195.705 0a.501.501 0 0 0 0-.708L11.96 11l4.633-4.646Z" fill="#fff"/></g></g><defs><filter id="a" x="-3.714" y="0" width="29.938" height="30" filterUnits="userSpaceOnUse" color-interpolation-filters="sRGB"><feFlood flood-opacity="0" result="BackgroundImageFix"/><feColorMatrix in="SourceAlpha" values="0 0 0 0 0 0 0 0 0 0 0 0 0 0 0 0 0 0 127 0" result="hardAlpha"/><feOffset dy="4"/><feGaussianBlur stdDeviation="2"/><feComposite in2="hardAlpha" operator="out"/><feColorMatrix values="0 0 0 0 0 0 0 0 0 0 0 0 0 0 0 0 0 0 0.25 0"/><feBlend in2="BackgroundImageFix" result="effect1_dropShadow_125_20474"/><feBlend in="SourceGraphic" in2="effect1_dropShadow_125_20474" result="shape"/></filter><filter id="b" x="3.77" y="3.5" width="14.969" height="15" filterUnits="userSpaceOnUse" color-interpolation-filters="sRGB"><feFlood flood-opacity="0" result="BackgroundImageFix"/><feColorMatrix in="SourceAlpha" values="0 0 0 0 0 0 0 0 0 0 0 0 0 0 0 0 0 0 127 0" result="hardAlpha"/><feOffset/><feGaussianBlur stdDeviation="1"/><feComposite in2="hardAlpha" operator="out"/><feColorMatrix values="0 0 0 0 0 0 0 0 0 0 0 0 0 0 0 0 0 0 0.5 0"/><feBlend in2="BackgroundImageFix" result="effect1_dropShadow_125_20474"/><feBlend in="SourceGraphic" in2="effect1_dropShadow_125_20474" result="shape"/></filter></defs></svg>
